X: 1
T: Broken Window, The
M: 2/4
L: 1/8
R: polka
K: Ador
A |^cA FE |A^c AF|Ac Ae |^cA FF |E2 E2|
ef eA|ef eB|ef e^c|AA FF|EF BA :|
